X: 4
T: The Gaelic Club
R: jig
M: 6/8
L: 1/8
K: Amin
A|cBA AGE|ABA ABc|BAG GAG|dcd GAB|
cBA AGE|AGA c2 d|efe dcB|cAA A2 :|
|:d|eaa efg|eaa ged|eaa gdc|BGG G2 A/B/|
|1cBA AGE|AGA c2 d|efe dcB|cAA A2:|
|2cBc dcd|edB c2 d|efe dcB|cAA A2|]


Tune 782	Setting 13912

